src/icons/outline/media/wav-file.svg

<svg width="24" height="24" viewBox="0 0 24 24" fill="none" xmlns="http://www.w3.org/2000/svg">
<g clip-path="url(#clip0_1_3358)">
<path fill-rule="evenodd" clip-rule="evenodd" d="M14.6455 7.88281C15.0901 7.88281 15.5136 8.06043 15.8389 8.38184C16.1639 8.70322 16.3369 9.14636 16.3369 9.60059V15.8516C16.3369 16.0842 16.2938 16.3061 16.207 16.5166C15.9359 17.1814 15.3069 17.5801 14.6455 17.5801H14.6348C14.418 17.5801 14.2012 17.5359 13.9844 17.4473C13.9303 17.4252 13.887 17.4032 13.8438 17.3701L10.959 15.3633H9.38672C8.45421 15.3633 7.69531 14.5879 7.69531 13.6348V11.8389C7.69542 11.3735 7.86914 10.9418 8.19434 10.6094C8.50878 10.288 8.93132 10.1104 9.38672 10.1104H10.9482L13.8438 8.09277C13.8506 8.08843 13.9325 8.03685 13.9844 8.01562C14.1903 7.927 14.4179 7.88285 14.6455 7.88281ZM11.751 11.5732C11.751 11.5732 11.6635 11.6292 11.6201 11.6514C11.4034 11.751 11.1866 11.7949 10.9482 11.7949H9.37598V11.7725L9.31055 13.6348L10.959 13.7012C11.1866 13.7012 11.4141 13.746 11.6201 13.8457C11.6635 13.8679 11.7183 13.8896 11.7617 13.9229L14.6455 15.9287L14.7109 15.874L14.667 9.54492L11.751 11.5732Z" fill="#1D1B20"/>
<path fill-rule="evenodd" clip-rule="evenodd" d="M15.0791 1C15.7514 1 16.4135 1.27699 16.8906 1.76465L20.252 5.2002C20.7399 5.69894 21 6.35352 21 7.05176V20.3623C21 21.8142 19.8501 22.9893 18.4297 22.9893L18.4414 23H5.57031C4.14983 23 3 21.8249 3 20.373V3.62695C3 2.17506 4.14983 1 5.57031 1H15.0791ZM5.57031 2.66211C5.04983 2.66211 4.62695 3.09496 4.62695 3.62695V20.373C4.62695 20.905 5.04983 21.3379 5.57031 21.3379H18.4414C18.9617 21.3376 19.3848 20.9049 19.3848 20.373V7.0625C19.3848 6.80767 19.2867 6.56403 19.1133 6.38672L15.752 2.9502C15.5786 2.77307 15.3292 2.67396 15.0908 2.67383H5.57031V2.66211Z" fill="#1D1B20"/>
</g>
<defs>
<clipPath id="clip0_1_3358">
<rect width="24" height="24" fill="white"/>
</clipPath>
</defs>
</svg>

<svg xmlns="http://www.w3.org/2000/svg" width="24" height="24" fill="none" viewBox="0 0 24 24"><g fill="currentColor" fill-rule="evenodd" clip-path="url(#a)" clip-rule="evenodd"><path d="M14.646 7.883c.444 0 .868.177 1.193.499.325.321.498.764.498 1.219v6.25q0 .35-.13.666a1.69 1.69 0 0 1-1.562 1.063h-.01q-.326 0-.65-.133a.6.6 0 0 1-.141-.077l-2.885-2.007H9.387c-.933 0-1.692-.775-1.692-1.728v-1.796c0-.466.174-.897.5-1.23a1.65 1.65 0 0 1 1.192-.499h1.561l2.896-2.017c.007-.005.088-.056.14-.077a1.7 1.7 0 0 1 .662-.133m-2.895 3.69s-.087.056-.13.078c-.218.1-.434.144-.673.144H9.376v-.022l-.065 1.862 1.648.066c.228 0 .455.045.661.145.044.022.098.044.142.077l2.883 2.006.066-.055-.044-6.33z"/><path d="M15.08 1a2.55 2.55 0 0 1 1.81.765L20.253 5.2A2.62 2.62 0 0 1 21 7.052v13.31c0 1.452-1.15 2.627-2.57 2.627l.011.011H5.571C4.15 23 3 21.825 3 20.373V3.627C3 2.175 4.15 1 5.57 1zM5.57 2.662a.955.955 0 0 0-.943.965v16.746c0 .532.423.965.943.965h12.871c.52 0 .944-.433.944-.965V7.063a.97.97 0 0 0-.272-.676L15.752 2.95a.94.94 0 0 0-.661-.276H5.57z"/></g><defs><clipPath id="a"><path fill="currentColor" d="M0 0h24v24H0z"/></clipPath></defs></svg>
